X: 12173
T: Exile's Jig, The
R: slip jig
M: 9/8
K: Gmajor
g|:edB BAB GED|E2d d2B d2g|edB BAB GED|1 E2e e2d efg:|2 E2e e2d e2d||
B2g g2e fed|B2d d2B d2A|B2g g2e fed|B2e e2d e2d|
B2g g2e fed|B2d d2B d2g|edB BAB GED|E2e e2d efg||

